src/assets/duotone/GallerySlash.svg

<svg width="24" height="24" viewBox="0 0 24 24"  xmlns="http://www.w3.org/2000/svg">
<path opacity="0.4" d="M20.46 3.54L3.54 20.46C2.54 19.46 2 18.01 2 16.19V7.81C2 4.17 4.17 2 7.81 2H16.19C18.01 2 19.46 2.54 20.46 3.54Z" />
<path opacity="0.4" d="M21.9998 7.80989V13.8999L20.3698 12.4999C19.5898 11.8299 18.3298 11.8299 17.5498 12.4999L13.3898 16.0699C12.6798 16.6799 11.5598 16.7399 10.7798 16.2199L21.6098 5.38989C21.7498 5.76989 21.8498 6.16989 21.9098 6.59989C21.9698 6.97989 21.9998 7.38989 21.9998 7.80989Z" />
<path d="M22.0001 13.9001V16.1901C22.0001 19.8301 19.8301 22.0001 16.1901 22.0001H7.81014C7.39014 22.0001 6.98014 21.9701 6.60014 21.9101C6.17014 21.8501 5.77014 21.7501 5.39014 21.6101L10.7801 16.2201C11.5601 16.7401 12.6801 16.6801 13.3901 16.0701L17.5501 12.5001C18.3301 11.8301 19.5901 11.8301 20.3701 12.5001L22.0001 13.9001Z" />
<path d="M21.7699 2.22988C21.4699 1.92988 20.9799 1.92988 20.6799 2.22988L2.22988 20.6899C1.92988 20.9899 1.92988 21.4799 2.22988 21.7799C2.37988 21.9199 2.56988 21.9999 2.76988 21.9999C2.96988 21.9999 3.15988 21.9199 3.30988 21.7699L21.7699 3.30988C22.0799 3.00988 22.0799 2.52988 21.7699 2.22988Z" />
<path d="M8.00012 10.3801C9.31456 10.3801 10.3801 9.31456 10.3801 8.00012C10.3801 6.68568 9.31456 5.62012 8.00012 5.62012C6.68568 5.62012 5.62012 6.68568 5.62012 8.00012C5.62012 9.31456 6.68568 10.3801 8.00012 10.3801Z" />
</svg>

<?xml version="1.0" encoding="UTF-8"?>
<svg width="24" height="24" viewBox="0 0 24 24" xmlns="http://www.w3.org/2000/svg">
 <path d="M20.46 3.54L3.54 20.46C2.54 19.46 2 18.01 2 16.19V7.81C2 4.17 4.17 2 7.81 2H16.19C18.01 2 19.46 2.54 20.46 3.54Z" opacity=".4"/>
 <path d="m22 7.8099v6.09l-1.63-1.4c-0.78-0.67-2.04-0.67-2.82 0l-4.16 3.57c-0.71 0.61-1.83 0.67-2.61 0.15l10.83-10.83c0.14 0.38 0.24 0.78 0.3 1.21 0.06 0.38 0.09 0.79 0.09 1.21z" opacity=".4"/>
 <path d="m22 13.9v2.29c0 3.64-2.17 5.81-5.81 5.81h-8.38c-0.42 0-0.83-0.03-1.21-0.09-0.43-0.06-0.83-0.16-1.21-0.3l5.39-5.39c0.78 0.52 1.9 0.46 2.61-0.15l4.16-3.57c0.78-0.67 2.04-0.67 2.82 0l1.63 1.4z"/>
 <path d="m21.77 2.2299c-0.3-0.3-0.79-0.3-1.09 0l-18.45 18.46c-0.3 0.3-0.3 0.79 0 1.09 0.15 0.14 0.34 0.22 0.54 0.22s0.39-0.08 0.54-0.23l18.46-18.46c0.31-0.3 0.31-0.78 0-1.08z"/>
 <path d="m8.0001 10.38c1.3144 0 2.38-1.0655 2.38-2.38s-1.0655-2.38-2.38-2.38-2.38 1.0656-2.38 2.38 1.0656 2.38 2.38 2.38z"/>
</svg>
